!!!id: EG067
!!!page: 182-183
!!!COM: Anonymous
!!!LYR: Anonymous
!!!PTL@@FR: Chansons Populaires du Canada
!!!OTL@@FR: M'en revenant de Saint-André
!!!PUB: G. E. Desbarats
!!!YEM:
!!!PDT: 1865
!!!SMA:
!!!OMD:
!!!AGN-Laforte:
!!!AGN-type:
!!!AGN-rime:
**kern
*clefG2
*k[f#,c#]
*e:
*M2/4
*
*
8b/
16b/
16b/
=1
8a
8g
8e
8g
=2
4b/
8b/
16b/
16b/
!!LO:PB:g=original
=3
8a
8g
8e
8g
=4
8b/
16r;
16b/
8b/
8cc#
=5
8dd
8b
8a
8f#
!!LO:PB:g=original
=6
8e
8r
4e
=7
4g
8a
16g
16f#
=8
8eL
8eJ
8g
16f#
16g
!!LO:PB:g=original
=9
8e
8f#
8g
8a
=10
8b/
8b/
8cc#
16b/
16b/
=11
8a
8f#
8g
8f#
!!LO:PB:g=original
=12
4e
==||
8r
==||
*
*
==|
!!!RWG: Seems to be in E Dorian, labelled as E Minor with two sharps
!!!RNB: Final eighth rest flipped backward in original
*-
